X: 6
T: The Miller Of Droghan
R: reel
M: 4/4
L: 1/8
K: Emin
Bd[|eE EE DGB,G|DEGA BAGA|GE EE DGB,G|DEGA BABd|
eE EE DGB,G|DEGA BAGA|GE EE DGB,G|DEGA BdBA||
G2 BG dG (3BAG|Eeef gedB|G2 BG dGBA|GEGA BdBA|
G2 BG dG (3BAG|Eeef gfed|faef deBA|GEGA Bdef|]


Tune 746	Setting 13835

